X: 9864
T: Dermot
R: waltz
M: 3/4
K: Dmajor
A3 G F2|d3 c B2|A2 (GF) (ED)|F2 E2 F2|
A3 G F2|d3 e f2|F3 D (F3/2E/2)|D4 z2|
d2 (dc) (Bc)|d2 D2 c2|d3 e f2|(fd) B2 B2|
A3 G F2|d3 e f2|F3 D (FE)|{E}D4 z2|

